X: 82
T:Smash the Windows (1st Violin)
M:6/8
L:1/8
Q:120
C:Traditional
R:Jig
K:D
|:"D"DED F2 A|d2f "A"ecA|"G"G2B"D"F2A|"A"E2F GFE|"D"DED F2A|!
d2f "A"ecA|"G"Bgf "A"edc|[1"D"d3 dAF:|
[2"D"d2d dfg||"D"a2fd2e|!
f2g agf|"A"gfe cAc|e2 f gfe|"D"a2fd2e|f2g agf|!
"A"gfe cde|
"D"d2d dfg|a2f dcd|f2 g agf|"A"gfe cAc|!
e2f gfe|"D"fed "A"gfe|"D"agf "G"b
ag|"D"fgf "A"edc|"D"d3d3:|
